X:1
T:Cuaich\'in Ghleann Neif\'in
T:Little Cuckoo of Glen Nefin, The
R:slow air
S:Mary Bergin
Z:id:hn-slowair-1
M:3/4
L:1/8
Q:1/4=80
K:Edor
f | {a}g4 {ag}fd | e {a}f4 d | e2{fe} d2 {A}B>c | d4{ed} cd | e3 z EF |
{A}G4 AB | d {A}B3 A3/B//A// | G E4 F | {A}G4-G{AG} F | {A}G3 z ||
|: {F}G>A | B4{cBA} (3Bcd | e>f {a}g3{ag} f | g3 z ga |
{a}b2 {c'b}a4 | {ba}g f3 {gf}ed | e4 z e | f2{gf} e2{fe} d2 | {A}B4 {cB}A2 | {A}B3 z :|
z f | {a}g4 {ag}fd | e {a}f4 d | e2{fe} d2 {A}B>c | d4{ed} cd | e3 z
EF | {A}G4 AB | d {A}B3 A3/B//A// | G E4 F | {A}G4-G{AG} F | {A}G3 z ||

